book-remove-multiple-outline.svg

<svg fill="currentColor" viewBox="0 0 24 24"><path d="M13.09 20H5V6H3v14a2 2 0 0 0 2 2h8.81a5.5 5.5 0 0 1-.72-2M19 2H9a2 2 0 0 0-2 2v12a2 2 0 0 0 2 2h4.09a5.5 5.5 0 0 1 .72-2H9V4h2v6l2.5-2.25L16 10V4h3v9a6 6 0 0 1 2 .34V4a2 2 0 0 0-2-2m3.54 14.88L20.41 19l2.13 2.12-1.42 1.42L19 20.41l-2.12 2.13-1.42-1.42L17.59 19l-2.13-2.12 1.42-1.42L19 17.59l2.12-2.13Z"/></svg>

<svg  viewBox="0 0 24 24" fill="currentColor"><path  d="M13.09 20H5V6H3V20A2 2 0 0 0 5 22H13.81A5.5 5.5 0 0 1 13.09 20M19 2H9A2 2 0 0 0 7 4V16A2 2 0 0 0 9 18H13.09A5.5 5.5 0 0 1 13.81 16H9V4H11V10L13.5 7.75L16 10V4H19V13A6 6 0 0 1 21 13.34V4A2 2 0 0 0 19 2M22.54 16.88L20.41 19L22.54 21.12L21.12 22.54L19 20.41L16.88 22.54L15.46 21.12L17.59 19L15.46 16.88L16.88 15.46L19 17.59L21.12 15.46Z"/></svg>
